icons/image-alt.svg

<svg xmlns="http://www.w3.org/2000/svg" viewBox="0 0 24 24" fill="currentColor">
  <path d="M7 3.75C5.21421 3.75 3.75 5.21421 3.75 7v5.9787c.09793-.078.20118-.1568.30977-.2355C5.15724 11.9475 6.80791 11.1504 9 11.1504c1.0992 0 1.9637.2074 2.6879.5601.7181.3499 1.2557.8228 1.7174 1.2846.1665.1664.322.3286.4721.4853l.0003.0002c.7082.7389 1.2985 1.3546 2.3595 1.7083l.0056.0018c.8272.283 1.4619.2733 1.9473.1431.4905-.1315.8845-.401 1.2003-.722.3185-.3236.5461-.6885.695-.9796.0736-.1438.1257-.2652.1585-.3478l.0061-.0154V7c0-1.78579-1.4642-3.25-3.25-3.25H7ZM3.75 17v-1.9429c.04686-.0564.10589-.1248.17708-.2022.22249-.2419.56062-.5692 1.01315-.8973C5.84276 13.3033 7.1921 12.6504 9 12.6504c.90083 0 1.5363.1676 2.0309.4086.5006.2439.9005.5835 1.3138.9967.126.126.2546.2617.3887.403.7154.7542 1.5848 1.6709 3.0267 2.1523 1.0716.3661 2.011.3881 2.8185.1716.687-.1842 1.2388-.5302 1.6714-.9184V17c0 1.7858-1.4642 3.25-3.25 3.25H7c-1.87354 0-3.25-1.4519-3.25-3.25ZM2.25 7c0-2.61421 2.13579-4.75 4.75-4.75h10c2.6142 0 4.75 2.13579 4.75 4.75v10c0 2.6142-2.1358 4.75-4.75 4.75H7c-2.72646 0-4.75-2.1481-4.75-4.75V7Zm12.5 1.5c0-.41421.3358-.75.75-.75s.75.33579.75.75-.3358.75-.75.75-.75-.33579-.75-.75Zm.75-2.25c-1.2426 0-2.25 1.00736-2.25 2.25s1.0074 2.25 2.25 2.25 2.25-1.00736 2.25-2.25-1.0074-2.25-2.25-2.25Z"/>
</svg>

<svg width="24" height="24" viewBox="0 0 24 24" fill="none" xmlns="http://www.w3.org/2000/svg">
<path fill-rule="evenodd" clip-rule="evenodd" d="M7 3.75C5.21421 3.75 3.75 5.21421 3.75 7V12.9787C3.84793 12.9007 3.95118 12.8219 4.05977 12.7432C5.15724 11.9475 6.80791 11.1504 9 11.1504C10.0992 11.1504 10.9637 11.3578 11.6879 11.7105C12.406 12.0604 12.9436 12.5333 13.4053 12.9951C13.5718 13.1615 13.7273 13.3237 13.8774 13.4804L13.8777 13.4806L13.8777 13.4806C14.5859 14.2195 15.1762 14.8352 16.2372 15.1889L16.2428 15.1907C17.07 15.4737 17.7047 15.464 18.1901 15.3338C18.6806 15.2023 19.0746 14.9328 19.3904 14.6118C19.7089 14.2882 19.9365 13.9233 20.0854 13.6322C20.159 13.4884 20.2111 13.367 20.2439 13.2844L20.25 13.269V7C20.25 5.21421 18.7858 3.75 17 3.75H7ZM3.75 17V15.0571C3.79686 15.0007 3.85589 14.9323 3.92708 14.8549C4.14957 14.613 4.4877 14.2857 4.94023 13.9576C5.84276 13.3033 7.1921 12.6504 9 12.6504C9.90083 12.6504 10.5363 12.818 11.0309 13.059C11.5315 13.3029 11.9314 13.6425 12.3447 14.0557C12.4707 14.1817 12.5993 14.3174 12.7334 14.4587C13.4488 15.2129 14.3182 16.1296 15.7601 16.611C16.8317 16.9771 17.7711 16.9991 18.5786 16.7826C19.2656 16.5984 19.8174 16.2524 20.25 15.8642V17C20.25 18.7858 18.7858 20.25 17 20.25H7C5.12646 20.25 3.75 18.7981 3.75 17ZM2.25 7C2.25 4.38579 4.38579 2.25 7 2.25H17C19.6142 2.25 21.75 4.38579 21.75 7V17C21.75 19.6142 19.6142 21.75 17 21.75H7C4.27354 21.75 2.25 19.6019 2.25 17V7ZM14.75 8.5C14.75 8.08579 15.0858 7.75 15.5 7.75C15.9142 7.75 16.25 8.08579 16.25 8.5C16.25 8.91421 15.9142 9.25 15.5 9.25C15.0858 9.25 14.75 8.91421 14.75 8.5ZM15.5 6.25C14.2574 6.25 13.25 7.25736 13.25 8.5C13.25 9.74264 14.2574 10.75 15.5 10.75C16.7426 10.75 17.75 9.74264 17.75 8.5C17.75 7.25736 16.7426 6.25 15.5 6.25Z" fill="black"/>
</svg>
